OBS Studio/Fluent Dark Grey/media/media_restart.svg

<svg width="24" height="24" viewBox="0 0 24 24" fill="none" xmlns="http://www.w3.org/2000/svg">
<path d="M12 4.75C7.99594 4.75 4.75 7.99594 4.75 12C4.75 16.0041 7.99594 19.25 12 19.25C16.0041 19.25 19.25 16.0041 19.25 12C19.25 11.7144 19.2335 11.4326 19.2014 11.1556C19.1333 10.5685 19.5593 10 20.1504 10C20.666 10 21.1193 10.3581 21.1817 10.8699C21.2268 11.2403 21.25 11.6174 21.25 12C21.25 17.1086 17.1086 21.25 12 21.25C6.89137 21.25 2.75 17.1086 2.75 12C2.75 6.89137 6.89137 2.75 12 2.75C14.1731 2.75 16.1712 3.49939 17.75 4.75385V4.25C17.75 3.69772 18.1977 3.25 18.75 3.25C19.3023 3.25 19.75 3.69772 19.75 4.25V6.94829C19.7612 6.96549 19.7724 6.98272 19.7835 7H19.75V7.25C19.75 7.80228 19.3023 8.25 18.75 8.25H15.75C15.1977 8.25 14.75 7.80228 14.75 7.25C14.75 6.69772 15.1977 6.25 15.75 6.25H16.4165C15.1936 5.30932 13.6621 4.75 12 4.75Z" fill="white"/>
</svg>

<svg width="24" height="24" fill="none" viewBox="0 0 24 24" xmlns="http://www.w3.org/2000/svg"><path d="m12 4.75c-4.0041 0-7.25 3.2459-7.25 7.25 0 4.0041 3.2459 7.25 7.25 7.25 4.0041 0 7.25-3.2459 7.25-7.25 0-0.2856-0.0165-0.5674-0.0486-0.8444-0.0681-0.5871 0.3579-1.1556 0.949-1.1556 0.5156 0 0.9689 0.3581 1.0313 0.8699 0.0451 0.3704 0.0683 0.7475 0.0683 1.1301 0 5.1086-4.1414 9.25-9.25 9.25-5.1086 0-9.25-4.1414-9.25-9.25 0-5.1086 4.1414-9.25 9.25-9.25 2.1731 0 4.1712 0.74939 5.75 2.0038v-0.50385c0-0.55228 0.4477-1 1-1s1 0.44772 1 1v2.6983c0.0112 0.0172 0.0224 0.03443 0.0335 0.05171h-0.0335v0.25c0 0.55228-0.4477 1-1 1h-3c-0.5523 0-1-0.44772-1-1s0.4477-1 1-1h0.6665c-1.2229-0.94068-2.7544-1.5-4.4165-1.5z" fill="#fff"/></svg>
